app/img/footer-icon-map.svg

<svg width="46" height="47" viewBox="0 0 46 47" fill="none" xmlns="http://www.w3.org/2000/svg">
<path d="M22.9987 27.1366C27.2269 27.1366 30.6654 23.6981 30.6654 19.4699C30.6654 15.2417 27.2269 11.8032 22.9987 11.8032C18.7705 11.8032 15.332 15.2417 15.332 19.4699C15.332 23.6981 18.7705 27.1366 22.9987 27.1366ZM22.9987 15.6366C25.1128 15.6366 26.832 17.3558 26.832 19.4699C26.832 21.584 25.1128 23.3032 22.9987 23.3032C20.8846 23.3032 19.1654 21.584 19.1654 19.4699C19.1654 17.3558 20.8846 15.6366 22.9987 15.6366Z" fill="white"/>
<path d="M21.8898 42.1136C22.2142 42.3452 22.6029 42.4697 23.0015 42.4697C23.4001 42.4697 23.7887 42.3452 24.1131 42.1136C24.6958 41.7015 38.3904 31.8134 38.3348 19.4701C38.3348 11.0156 31.4559 4.13672 23.0015 4.13672C14.5471 4.13672 7.66814 11.0156 7.66814 19.4605C7.61255 31.8134 21.3071 41.7015 21.8898 42.1136ZM23.0015 7.97005C29.3437 7.97005 34.5015 13.1278 34.5015 19.4796C34.5417 27.9858 26.0911 35.6237 23.0015 38.1288C19.9137 35.6218 11.4612 27.982 11.5015 19.4701C11.5015 13.1278 16.6592 7.97005 23.0015 7.97005Z" fill="white"/>
</svg>

<svg width="46" height="47" fill="none" xmlns="http://www.w3.org/2000/svg"><path d="M22.999 27.137c4.228 0 7.666-3.439 7.666-7.667S27.227 11.803 23 11.803c-4.229 0-7.667 3.439-7.667 7.667s3.438 7.667 7.667 7.667zm0-11.5a3.837 3.837 0 013.833 3.833 3.837 3.837 0 01-3.833 3.833 3.837 3.837 0 01-3.834-3.833A3.837 3.837 0 0123 15.637z" fill="#fff"/><path d="M21.89 42.114a1.913 1.913 0 002.223 0c.583-.412 14.277-10.3 14.222-22.644 0-8.454-6.88-15.333-15.334-15.333S7.668 11.016 7.668 19.46c-.055 12.353 13.64 22.242 14.222 22.654zM23 7.97c6.343 0 11.5 5.158 11.5 11.51.04 8.506-8.41 16.144-11.5 18.649-3.087-2.507-11.54-10.147-11.5-18.659 0-6.342 5.158-11.5 11.5-11.5z" fill="#fff"/></svg>
